img/services/more.svg

<svg width="123" height="122" viewBox="0 0 123 122" fill="none" xmlns="http://www.w3.org/2000/svg">
<path d="M0.413257 43.1178C2.37082 52.3802 10.2268 59.0571 19.6942 59.2493C26.3156 59.3881 32.9454 59.3881 39.5838 59.2493C44.7524 59.1684 49.6882 57.0868 53.3538 53.4421C57.0194 49.7974 59.1292 44.8736 59.2397 39.7056C59.4191 32.9583 59.4191 26.2088 59.2397 19.4571C59.009 10.5055 52.8319 2.96681 44.1814 0.660017C43.2844 0.419726 42.32 0.464562 41.4806 0H17.5092C16.5768 0.560678 15.4747 0.503007 14.4719 0.839414C6.90115 3.40251 2.19147 8.52873 0.394093 16.3174C0.304384 16.7082 0.454982 17.2112 0.00964355 17.4996V41.9484C0.451778 42.2239 0.33316 42.7397 0.413257 43.1178ZM4.79622 20.5529C4.81223 11.582 11.5788 4.81542 20.5496 4.7994C26.6178 4.7994 32.687 4.7994 38.7573 4.7994C47.6513 4.81862 54.3569 11.4154 54.4947 20.3094C54.5428 23.4235 54.4947 26.5377 54.4947 29.6519C54.4947 32.766 54.5235 35.8001 54.4947 38.8758C54.4146 46.7477 49.3397 52.8191 41.6119 54.2801C40.6677 54.4367 39.711 54.5054 38.7541 54.4851C32.7244 54.5043 26.6958 54.5043 20.6682 54.4851C11.5116 54.4851 4.80262 47.757 4.79301 38.6291C4.78874 32.6123 4.78981 26.5868 4.79622 20.5529Z" fill="#5C5C5C"/>
<path d="M39.4589 62.6771C32.9102 62.5575 26.3593 62.5575 19.8063 62.6771C10.294 62.8405 2.38682 69.5078 0.413234 78.8214C0.329933 79.2123 0.448543 79.7153 0 79.9877V104.44C0.438931 104.68 0.278693 105.151 0.355586 105.503C2.47655 115.378 10.5375 121.923 20.6393 121.936C26.7908 121.936 32.9423 121.971 39.0905 121.936C50.0702 121.865 58.9545 113.324 59.2428 102.354C59.4223 95.6514 59.4223 88.9425 59.2428 82.2272C59.1259 77.0385 56.9968 72.0985 53.3052 68.4505C49.6136 64.8026 44.6486 62.7323 39.4589 62.6771ZM54.5011 101.271C54.453 110.511 47.773 117.14 38.5138 117.146C32.5332 117.146 26.5441 117.146 20.5464 117.146C11.5756 117.13 4.81221 110.354 4.79619 101.39C4.79619 95.3214 4.79619 89.2533 4.79619 83.1851C4.81221 74.2143 11.5499 67.4861 20.5528 67.4541C26.621 67.4413 32.6891 67.4413 38.7573 67.4541C47.7281 67.4701 54.3954 74.0798 54.4979 83.0698C54.5331 86.1423 54.4979 89.218 54.4979 92.2905C54.5043 95.2829 54.5171 98.2786 54.5011 101.271Z" fill="#5C5C5C"/>
<path d="M83.1502 59.2525C89.7716 59.3978 96.4014 59.3978 103.04 59.2525C108.288 59.1373 113.284 56.9767 116.962 53.2314C120.64 49.486 122.71 44.4521 122.731 39.2027C122.778 32.8526 122.778 26.5014 122.731 20.1492C122.706 15.6841 121.207 11.3523 118.466 7.82768C115.724 4.30303 111.895 1.78317 107.573 0.660062C106.718 0.432587 105.795 0.461422 105.01 0.0192871H81.0389C80.9492 0.339675 80.6608 0.23392 80.4493 0.272367C70.6134 2.02489 63.6706 9.98974 63.4688 19.9538C63.3438 26.541 63.3118 33.1377 63.488 39.7217C63.6066 44.887 65.7202 49.8058 69.3858 53.4469C73.0514 57.088 77.9843 59.1686 83.1502 59.2525ZM68.2394 20.633C68.2843 11.4763 74.9835 4.82188 84.153 4.81227C90.1336 4.81227 96.1227 4.81227 102.12 4.81227C111.171 4.81227 117.928 11.566 117.944 20.617C117.944 26.6851 117.944 32.7533 117.944 38.8214C117.925 47.7282 111.181 54.4756 102.245 54.5204C96.096 54.5396 89.9467 54.5396 83.7974 54.5204C75.0572 54.482 68.3515 47.8371 68.233 39.0937C68.1881 35.8899 68.233 32.7052 68.233 29.5109C68.2362 26.5281 68.2234 23.5742 68.2394 20.633Z" fill="#5C5C5C"/>
<path d="M122.699 82.0251C122.484 71.8368 113.965 63.087 103.761 62.7442C96.5775 62.5007 89.3753 62.5103 82.1954 62.7442C72.4268 63.0646 63.9717 71.6253 63.5295 81.3876C63.3662 84.9759 63.504 88.5771 63.504 92.1718C63.504 95.7666 63.3694 99.3645 63.5295 102.953C63.9813 113.141 72.651 121.676 82.8361 121.891C89.6711 122.036 96.506 122.036 103.341 121.891C113.696 121.676 122.513 112.859 122.728 102.504C122.849 95.6822 122.84 88.8558 122.699 82.0251ZM117.944 101.386C117.925 110.357 111.155 117.13 102.191 117.143C96.1226 117.143 90.0534 117.143 83.9831 117.143C75.0443 117.124 68.3258 110.453 68.2425 101.511C68.2137 98.4386 68.2425 95.3628 68.2425 92.2871C68.2425 89.2114 68.2265 86.219 68.2425 83.1849C68.3034 74.0795 74.9706 67.4571 84.1017 67.4475C90.1314 67.4475 96.16 67.4475 102.188 67.4475C111.184 67.4635 117.928 74.1948 117.947 83.1785C117.956 89.2488 117.955 95.318 117.944 101.386Z" fill="#5C5C5C"/>
</svg>

<svg xmlns="http://www.w3.org/2000/svg" width="123" height="122" fill="none"><path fill="#5C5C5C" d="M.413 43.118c1.958 9.262 9.814 15.94 19.281 16.131 6.622.14 13.251.14 19.89 0A19.973 19.973 0 0 0 59.24 39.706c.18-6.748.18-13.497 0-20.249C59.009 10.505 52.832 2.967 44.18.66c-.897-.24-1.861-.195-2.7-.66H17.509c-.932.56-2.034.503-3.037.84C6.902 3.402 2.192 8.528.394 16.316c-.09.391.061.894-.384 1.183v24.448c.442.276.323.792.403 1.17Zm4.383-22.565C4.812 11.582 11.58 4.815 20.55 4.799h18.207c8.894.02 15.6 6.616 15.738 15.51.048 3.114 0 6.229 0 9.343s.029 6.148 0 9.224c-.08 7.872-5.155 13.943-12.883 15.404-.944.157-1.901.225-2.858.205-6.03.02-12.058.02-18.086 0-9.156 0-15.865-6.728-15.875-15.856-.004-6.017-.003-12.042.003-18.076ZM39.459 62.677c-6.549-.12-13.1-.12-19.653 0-9.512.163-17.42 6.83-19.393 16.144-.083.391.036.894-.413 1.167v24.452c.439.24.279.711.356 1.063 2.12 9.875 10.181 16.42 20.283 16.433 6.152 0 12.303.035 18.451 0 10.98-.071 19.864-8.612 20.153-19.582.18-6.703.18-13.412 0-20.127a20.002 20.002 0 0 0-19.784-19.55ZM54.5 101.271c-.048 9.24-6.728 15.869-15.987 15.875H20.546c-8.97-.016-15.734-6.792-15.75-15.756V83.185c.016-8.97 6.754-15.699 15.757-15.73 6.068-.014 12.136-.014 18.204 0 8.971.015 15.638 6.625 15.74 15.615.036 3.072 0 6.148 0 9.22.007 2.993.02 5.989.004 8.981ZM83.15 59.252c6.622.146 13.251.146 19.89 0a20.132 20.132 0 0 0 19.691-20.05c.047-6.35.047-12.7 0-19.053A20.256 20.256 0 0 0 107.573.66c-.855-.227-1.778-.199-2.563-.64H81.039c-.09.32-.378.214-.59.252-9.836 1.753-16.778 9.718-16.98 19.682-.125 6.587-.157 13.184.019 19.768a19.992 19.992 0 0 0 19.662 19.53ZM68.24 20.633c.044-9.157 6.744-15.811 15.913-15.82h17.967c9.051 0 15.808 6.753 15.824 15.804v18.204c-.019 8.907-6.763 15.655-15.699 15.7-6.149.019-12.298.019-18.448 0-8.74-.039-15.445-6.684-15.564-15.427-.045-3.204 0-6.389 0-9.583.003-2.983-.01-5.937.006-8.878ZM122.699 82.025c-.215-10.188-8.734-18.938-18.938-19.28a324.817 324.817 0 0 0-21.566 0c-9.768.32-18.223 8.88-18.665 18.643-.164 3.588-.026 7.19-.026 10.784 0 3.595-.135 7.193.026 10.781.451 10.188 9.121 18.723 19.306 18.938 6.835.145 13.67.145 20.505 0 10.355-.215 19.172-9.032 19.387-19.387.121-6.822.112-13.648-.029-20.479Zm-4.755 19.361c-.019 8.971-6.789 15.744-15.753 15.757H83.983c-8.939-.019-15.657-6.69-15.74-15.632-.03-3.072 0-6.148 0-9.224 0-3.076-.016-6.068 0-9.102.06-9.106 6.728-15.728 15.859-15.737h18.086c8.996.016 15.74 6.747 15.759 15.73.009 6.07.008 12.14-.003 18.208Z"/></svg>
